src/lib/packages/icons/src/assets/line/chicken-leg.svg

<svg width="24" height="24" viewBox="0 0 24 24" fill="none" xmlns="http://www.w3.org/2000/svg">
<path d="M20 4.00017C18.52 2.52017 16.43 1.93017 14.4 2.41017C12.37 2.89017 10.76 4.36016 10.1 6.34016L8.87999 10.0102C8.65999 10.6702 8.62999 11.3602 8.77999 12.0102L6.18999 14.6002C6.07999 14.7002 5.93999 14.7302 5.83999 14.6902C4.83999 14.2102 3.43999 14.5602 2.74999 15.5202C2.25999 16.1902 2.12998 17.0502 2.39998 17.8702C2.70998 18.7902 3.48998 19.4202 4.45998 19.5502C4.54998 20.2102 4.89999 20.8102 5.43999 21.2202C5.88999 21.5602 6.42998 21.7402 6.98998 21.7402C7.21998 21.7402 7.45999 21.7102 7.68999 21.6402C8.47999 21.4202 9.14 20.8102 9.39 20.0402C9.6 19.4402 9.58997 18.8102 9.35997 18.2102C9.30997 18.0902 9.29998 17.9202 9.39998 17.8102L12.01 15.2102C12.27 15.2702 12.53 15.3002 12.8 15.3002C13.2 15.3002 13.6 15.2402 14 15.1002L17.67 13.8802C19.65 13.2202 21.12 11.6102 21.6 9.58015C22.08 7.55015 21.48 5.46018 20.01 3.98018L20 4.00017ZM8.32 16.7802C7.81 17.3002 7.67 18.0902 7.95 18.7802C8.05 19.0402 8.05 19.3002 7.95 19.5702C7.85 19.8702 7.58999 20.1202 7.27999 20.2002C6.81999 20.3302 6.48997 20.1502 6.32998 20.0302C6.06998 19.8302 5.92 19.5302 5.92 19.2002C5.92 18.5802 5.41999 18.0802 4.80999 18.0802C4.32999 18.0802 3.94999 17.8302 3.80999 17.4102C3.64999 16.9202 3.83 16.5702 3.95 16.4102C4.24 16.0202 4.72999 15.8402 5.21999 16.0702C5.89999 16.3502 6.69 16.2002 7.23 15.6802L9.43999 13.4702C9.53999 13.6102 9.65999 13.7402 9.77999 13.8602L10.15 14.2302C10.28 14.3602 10.42 14.4602 10.56 14.5602L8.32998 16.7902L8.32 16.7802ZM20.13 9.26017C19.77 10.7802 18.67 11.9902 17.19 12.4802L13.52 13.7002C12.7 13.9702 11.82 13.7602 11.22 13.1602L10.85 12.7902C10.24 12.1802 10.04 11.3002 10.31 10.4902L11.53 6.82017C12.02 5.34017 13.23 4.24017 14.75 3.88017C15.1 3.80017 15.45 3.76017 15.79 3.76017C16.96 3.76017 18.09 4.22017 18.94 5.07017C20.05 6.18017 20.49 7.74015 20.13 9.27015V9.26017Z" fill="currentColor"/>
</svg>

<svg xmlns="http://www.w3.org/2000/svg" width="24" height="24" fill="none"><path fill="currentColor" d="M20 4a5.93 5.93 0 0 0-5.6-1.59 5.95 5.95 0 0 0-4.3 3.93l-1.22 3.67a3.69 3.69 0 0 0-.1 2L6.19 14.6c-.11.1-.25.13-.35.09-1-.48-2.4-.13-3.09.83-.49.67-.62 1.53-.35 2.35.31.92 1.09 1.55 2.06 1.68.09.66.44 1.26.98 1.67a2.56 2.56 0 0 0 2.25.42c.79-.22 1.45-.83 1.7-1.6.21-.6.2-1.23-.03-1.83-.05-.12-.06-.29.04-.4l2.61-2.6A3.598 3.598 0 0 0 14 15.1l3.67-1.22a5.95 5.95 0 0 0 3.93-4.3c.48-2.03-.12-4.12-1.59-5.6L20 4ZM8.32 16.78c-.51.52-.65 1.31-.37 2 .1.26.1.52 0 .79-.1.3-.36.55-.67.63-.46.13-.79-.05-.95-.17-.26-.2-.41-.5-.41-.83 0-.62-.5-1.12-1.11-1.12-.48 0-.86-.25-1-.67-.16-.49.02-.84.14-1 .29-.39.78-.57 1.27-.34.68.28 1.47.13 2.01-.39l2.21-2.21c.1.14.22.27.34.39l.37.37c.13.13.27.23.41.33l-2.23 2.23-.01-.01Zm11.81-7.52a4.45 4.45 0 0 1-2.94 3.22l-3.67 1.22c-.82.27-1.7.06-2.3-.54l-.37-.37a2.23 2.23 0 0 1-.54-2.3l1.22-3.67a4.45 4.45 0 0 1 3.22-2.94c.35-.08.7-.12 1.04-.12 1.17 0 2.3.46 3.15 1.31a4.441 4.441 0 0 1 1.19 4.2v-.01Z"/></svg>
